svg/editor/spacing_vertical_line.svg

<?xml version="1.0" encoding="UTF-8"?>
<svg width="24px" height="24px" viewBox="0 0 24 24" version="1.1" xmlns="http://www.w3.org/2000/svg" xmlns:xlink="http://www.w3.org/1999/xlink">
    <title>spacing_vertical_line</title>
    <g id="页面-1" stroke="none" stroke-width="1" fill="none" fill-rule="evenodd">
        <g id="Editor" transform="translate(-384.000000, -192.000000)" fill-rule="nonzero">
            <g id="spacing_vertical_line" transform="translate(384.000000, 192.000000)">
                 <path d="M24,0 L24,24 L0,24 L0,0 L24,0 Z M12.5934901,23.257841 L12.5819402,23.2595131 L12.5108777,23.2950439 L12.4918791,23.2987469 L12.4918791,23.2987469 L12.4767152,23.2950439 L12.4056548,23.2595131 C12.3958229,23.2563662 12.3870493,23.2590235 12.3821421,23.2649074 L12.3780323,23.275831 L12.360941,23.7031097 L12.3658947,23.7234994 L12.3769048,23.7357139 L12.4804777,23.8096931 L12.4953491,23.8136134 L12.4953491,23.8136134 L12.5071152,23.8096931 L12.6106902,23.7357139 L12.6232938,23.7196733 L12.6232938,23.7196733 L12.6266527,23.7031097 L12.609561,23.275831 C12.6075724,23.2657013 12.6010112,23.2592993 12.5934901,23.257841 L12.5934901,23.257841 Z M12.8583906,23.1452862 L12.8445485,23.1473072 L12.6598443,23.2396597 L12.6498822,23.2499052 L12.6498822,23.2499052 L12.6471943,23.2611114 L12.6650943,23.6906389 L12.6699349,23.7034178 L12.6699349,23.7034178 L12.678386,23.7104931 L12.8793402,23.8032389 C12.8914285,23.8068999 12.9022333,23.8029875 12.9078286,23.7952264 L12.9118235,23.7811639 L12.8776777,23.1665331 C12.8752882,23.1545897 12.8674102,23.1470016 12.8583906,23.1452862 L12.8583906,23.1452862 Z M12.1430473,23.1473072 C12.1332178,23.1423925 12.1221763,23.1452606 12.1156365,23.1525954 L12.1099173,23.1665331 L12.0757714,23.7811639 C12.0751323,23.7926639 12.0828099,23.8018602 12.0926481,23.8045676 L12.108256,23.8032389 L12.3092106,23.7104931 L12.3186497,23.7024347 L12.3186497,23.7024347 L12.3225043,23.6906389 L12.340401,23.2611114 L12.337245,23.2485176 L12.337245,23.2485176 L12.3277531,23.2396597 L12.1430473,23.1473072 Z" id="MingCute" fill-rule="nonzero"></path>
                <path d="M19,16 C20.0543909,16 20.9181678,16.81585 20.9945144,17.8507339 L21,18 L21,20 C21,20.5523 20.5523,21 20,21 C19.48715,21 19.0644908,20.613973 19.0067275,20.1166239 L19,20 L19,18 L5,18 L5,20 C5,20.5523 4.55228,21 4,21 C3.48716857,21 3.06449347,20.613973 3.0067278,20.1166239 L3,20 L3,18 C3,16.9456091 3.81587733,16.0818322 4.85073759,16.0054856 L5,16 L19,16 Z M16,11 C16.5523,11 17,11.4477 17,12 C17,12.51285 16.613973,12.9355092 16.1166239,12.9932725 L16,13 L8,13 C7.44772,13 7,12.5523 7,12 C7,11.48715 7.38604429,11.0644908 7.88337975,11.0067275 L8,11 L16,11 Z M20,3 C20.5523,3 21,3.44772 21,4 L21,6 C21,7.10457 20.1046,8 19,8 L5,8 C3.89543,8 3,7.10457 3,6 L3,4 C3,3.44772 3.44772,3 4,3 C4.55228,3 5,3.44772 5,4 L5,6 L19,6 L19,4 C19,3.44772 19.4477,3 20,3 Z" id="形状" fill="#09244B"></path>
            </g>
        </g>
    </g>
</svg>

<svg xmlns="http://www.w3.org/2000/svg" width="24" height="24"><g fill="none" fill-rule="nonzero"><path d="M24 0v24H0V0h24ZM12.593 23.258l-.011.002-.071.035-.02.004-.014-.004-.071-.035c-.01-.004-.019-.001-.024.005l-.004.01-.017.428.005.02.01.013.104.074.015.004.012-.004.104-.074.012-.016.004-.017-.017-.427c-.002-.01-.009-.017-.017-.018Zm.265-.113-.013.002-.185.093-.01.01-.003.011.018.43.005.012.008.007.201.093c.012.004.023 0 .029-.008l.004-.014-.034-.614c-.003-.012-.01-.02-.02-.022Zm-.715.002a.023.023 0 0 0-.027.006l-.006.014-.034.614c0 .012.007.02.017.024l.015-.002.201-.093.01-.008.004-.011.017-.43-.003-.012-.01-.01-.184-.092Z"/><path fill="#09244B" d="M19 16a2 2 0 0 1 1.995 1.85L21 18v2a1 1 0 0 1-1.993.117L19 20v-2H5v2a1 1 0 0 1-1.993.117L3 20v-2a2 2 0 0 1 1.85-1.995L5 16h14Zm-3-5a1 1 0 0 1 .117 1.993L16 13H8a1 1 0 0 1-.117-1.993L8 11h8Zm4-8a1 1 0 0 1 1 1v2a2 2 0 0 1-2 2H5a2 2 0 0 1-2-2V4a1 1 0 0 1 2 0v2h14V4a1 1 0 0 1 1-1Z"/></g></svg>
